packages/kronos-fna-icons/src/umbrella.svg

<?xml version="1.0" encoding="UTF-8"?>
<svg width="19px" height="20px" viewBox="0 0 19 20" version="1.1" xmlns="http://www.w3.org/2000/svg" xmlns:xlink="http://www.w3.org/1999/xlink">
    <!-- Generator: Sketch 50.2 (55047) - http://www.bohemiancoding.com/sketch -->
    <title>umbrella</title>
    <desc>Created with Sketch.</desc>
    <defs></defs>
    <g id="umbrella" stroke="none" stroke-width="1" fill="none" fill-rule="evenodd">
        <path d="M18.9894233,10.692072 C18.9894233,10.692072 18.0097868,9.15348134 16.9207182,9.15348134 C15.8334005,9.15348134 14.690929,10.7441138 14.690929,10.7441138 C14.690929,10.7441138 13.4941792,9.15516011 12.5145427,9.15516011 C11.6854849,9.15516011 10.7093502,10.2480379 10.4265776,10.5854703 L10.4265776,16.6626096 C10.4265776,17.271163 10.3617938,17.7857053 10.2313506,18.2104335 C10.101783,18.633483 9.90918244,18.9776304 9.65442443,19.2428757 C9.40054188,19.508121 9.08362642,19.7020187 8.70367804,19.8212112 C8.32460513,19.9412431 7.88512567,20 7.38611514,20 C6.93175291,20 6.52554083,19.9345281 6.16572797,19.8035842 C5.80591511,19.6709615 5.50300696,19.4837789 5.25612806,19.2395182 C5.00924916,18.9952575 4.81927498,18.7014731 4.68708096,18.355647 C4.5557624,18.0114996 4.4883522,17.6262224 4.4883522,17.2014941 L4.4883522,16.6147648 L6.22175722,16.6147648 C6.22175722,17.1654006 6.21737994,17.8872707 6.42661418,18.167625 C6.63584842,18.4463004 6.95539025,18.5873169 7.38523968,18.5873169 C7.67501597,18.5873169 8.08910717,18.449658 8.08910717,18.449658 C8.08910717,18.449658 8.40602264,18.2314181 8.50144746,18.0660595 C8.59599682,17.9023797 8.6922971,17.4709363 8.6922971,17.4709363 C8.6922971,17.4709363 8.7413227,16.9840937 8.7413227,16.7054182 L8.7413227,10.4889411 C8.35349521,10.0684098 7.40187336,9.12746044 6.63935025,9.12746044 C5.66058923,9.12746044 4.30012893,10.692072 4.30012893,10.692072 C4.30012893,10.692072 2.99482242,9.12746044 2.12374263,9.12746044 C1.25353829,9.12746044 0.00251012314,10.692072 0.00251012314,10.692072 C0.00251012314,10.692072 -0.379189164,2.50304277 8.27120225,1.66869518 L9.52310587,5.32907052e-15 L10.7207312,1.66869518 C19.6407633,2.18995257 18.9894233,10.692072 18.9894233,10.692072 L18.9894233,10.692072 Z" id="Shape" fill="#000000"></path>
    </g>
</svg>

<svg viewBox="0 0 19 20" xmlns="http://www.w3.org/2000/svg">
    <title>umbrella</title>
    <path d="M18.989 10.692s-.98-1.539-2.069-1.539c-1.087 0-2.23 1.591-2.23 1.591s-1.197-1.589-2.176-1.589c-.829 0-1.805 1.093-2.088 1.43v6.077c0 .609-.065 1.123-.195 1.548-.13.423-.322.767-.577 1.032a2.211 2.211 0 0 1-.951.578c-.379.12-.819.179-1.318.179-.454 0-.861-.065-1.22-.196a2.51 2.51 0 0 1-.91-.564 2.453 2.453 0 0 1-.569-.884 3.222 3.222 0 0 1-.199-1.154v-.587H6.22c0 .551-.004 1.273.205 1.553.209.279.529.42.959.42.29 0 .704-.138.704-.138s.317-.218.412-.384c.095-.164.191-.595.191-.595s.049-.487.049-.766v-6.216c-.388-.421-1.339-1.361-2.102-1.361-.979 0-2.339 1.565-2.339 1.565S2.994 9.127 2.123 9.127c-.87 0-2.121 1.565-2.121 1.565S-.38 2.503 8.271 1.669L9.523 0l1.198 1.669c8.92.521 8.269 9.023 8.269 9.023h-.001z" />
</svg>
